<?xml version="1.0" encoding="UTF-8"?>
<map version="1.10" tiledversion="1.12.0" orientation="orthogonal" renderorder="right-down" width="40" height="12" tilewidth="64" tileheight="64" infinite="0" nextlayerid="6" nextobjectid="52">
 <editorsettings>
  <export target="level2.lua" format="lua"/>
 </editorsettings>
 <tileset firstgid="1" name="platformer" tilewidth="64" tileheight="64" tilecount="9" columns="3">
  <image source="tileset.png" width="192" height="192"/>
 </tileset>
 <tileset firstgid="10" name="flag" tilewidth="64" tileheight="64" tilecount="1" columns="1">
  <image source="flag.png" width="64" height="64"/>
 </tileset>
 <layer id="1" name="Tile Layer 1" width="40" height="12">
  <data encoding="csv">
0,0,0,0,0,0,0,0,0,0,0,0,0,0,0,0,0,0,0,0,0,0,0,0,0,0,0,0,0,0,0,0,0,0,0,0,0,0,0,0,
0,0,0,0,0,0,0,0,0,0,0,0,0,0,0,0,0,0,0,0,0,0,0,0,0,0,0,0,0,0,0,0,0,0,0,0,0,0,0,0,
0,0,0,0,0,0,0,0,0,0,0,0,0,0,0,0,0,0,1,3,0,0,0,0,0,0,0,0,0,0,0,0,0,0,0,0,0,0,0,10,
0,0,0,0,0,0,0,0,0,0,0,0,0,0,0,0,0,0,4,6,0,7,8,8,8,9,0,0,0,0,0,0,0,0,1,2,2,2,2,3,
0,0,0,0,0,0,0,0,0,0,0,0,0,0,0,0,7,8,4,5,3,0,0,0,0,0,0,0,0,0,0,0,0,0,0,0,0,0,0,0,
0,0,0,7,8,8,9,0,0,0,0,0,0,0,0,0,0,0,4,5,6,0,0,0,0,0,0,0,0,0,0,2,3,0,0,0,0,0,0,0,
0,0,0,7,8,9,0,0,0,0,0,0,0,0,0,0,0,0,0,0,0,0,0,0,0,0,0,2,0,0,0,5,6,0,0,0,0,0,0,0,
0,0,0,0,0,0,0,0,0,1,2,2,2,2,3,0,0,0,0,0,0,0,0,0,0,0,0,5,0,0,1,5,6,0,0,0,0,0,0,0,
0,0,0,0,0,0,0,0,0,4,5,5,5,5,6,0,0,0,0,0,0,0,0,0,0,0,0,0,0,0,4,5,6,0,0,0,0,0,0,0,
0,0,0,0,0,0,0,0,0,4,5,5,5,5,6,0,0,0,0,0,0,0,0,0,0,0,0,0,0,1,5,5,6,0,0,0,0,0,0,0,
0,0,0,0,0,0,0,0,0,4,5,5,5,5,6,0,0,7,8,8,8,8,8,9,0,0,0,1,2,5,5,5,6,0,0,0,0,0,0,0,
0,0,0,0,0,0,0,0,0,4,5,5,5,5,6,0,0,0,0,0,0,0,0,0,0,0,0,4,5,5,5,5,6,0,0,0,0,0,0,0
</data>
 </layer>
 <objectgroup id="4" name="flag">
  <object id="50" x="2496" y="128" width="64" height="64"/>
 </objectgroup>
 <objectgroup id="5" name="start">
  <object id="51" x="256" y="256" width="64" height="64"/>
 </objectgroup>
 <objectgroup id="2" name="Platforms">
  <object id="14" x="192" y="320" width="256" height="64"/>
  <object id="15" x="192" y="384" height="64"/>
  <object id="16" x="192" y="384" width="192" height="64"/>
  <object id="17" x="576" y="448" width="384" height="320"/>
  <object id="20" x="1088" y="640" width="448" height="64"/>
  <object id="23" x="1984" y="320" width="128" height="448"/>
  <object id="27" x="2176" y="192" width="384" height="64"/>
  <object id="37" x="1024" y="256" width="128" height="64"/>
  <object id="38" x="1728" y="384" width="64" height="128"/>
  <object id="40" x="1728" y="640" width="256" height="128"/>
  <object id="41" x="1920" y="448" width="64" height="192"/>
  <object id="42" x="1856" y="576" width="64" height="64"/>
  <object id="43" x="1152" y="128" width="128" height="256"/>
  <object id="44" x="1280" y="256" width="64" height="128"/>
  <object id="47" x="1344" y="192" width="320" height="64"/>
 </objectgroup>
 <objectgroup id="3" name="enemy">
  <object id="29" x="832" y="384" width="64" height="64"/>
  <object id="30" x="1408" y="128" width="64" height="64"/>
  <object id="31" x="1216" y="576" width="64" height="64"/>
 </objectgroup>
</map>
